;FLAVOR:Marlin
;TIME:195
;Filament used: 0.0497341m
;Layer height: 0.12
;MINX:100
;MINY:100.249
;MINZ:0.12
;MAXX:119.751
;MAXY:120.653
;MAXZ:1.92
;Generated with Cura_SteamEngine 4.9.1
M140 S70
M105
M190 S70
M104 S240
M105
M109 S240
M82 ;absolute extrusion mode
M201 X500.00 Y500.00 Z100.00 E5000.00 ;Setup machine max acceleration
M203 X500.00 Y500.00 Z10.00 E50.00 ;Setup machine max feedrate
M204 P500.00 R1000.00 T500.00 ;Setup Print/Retract/Travel acceleration
M205 X8.00 Y8.00 Z0.40 E5.00 ;Setup Jerk
M220 S100 ;Reset Feedrate
M221 S100 ;Reset Flowrate

G28 ;Home

G92 E0 ;Reset Extruder
G1 Z2.0 F3000 ;Move Z Axis up
G1 X10.1 Y20 Z0.28 F5000.0 ;Move to start position
G1 X10.1 Y200.0 Z0.28 F1500.0 E15 ;Draw the first line
G1 X10.4 Y200.0 Z0.28 F5000.0 ;Move to side a little
G1 X10.4 Y20 Z0.28 F1500.0 E30 ;Draw the second line
G92 E0 ;Reset Extruder
G1 Z2.0 F3000 ;Move Z Axis up

G92 E0
G92 E0
G1 F2700 E-5
;LAYER_COUNT:16
;LAYER:0
M107
;MESH:Simple.stl
G0 F6000 X100.671 Y119.329 Z0.12
;TYPE:WALL-OUTER
G1 F2700 E0
G1 F900 X116.157 Y116.157 E0.31546
G1 X119.329 Y100.671 E0.63091
G1 X103.843 Y103.843 E0.94637
G1 X100.671 Y119.329 E1.26182
G0 F6000 X100.249 Y119.751
G1 F900 X103.256 Y103.256 E1.59643
G1 X119.751 Y100.249 E1.93103
G1 X116.744 Y116.744 E2.26563
G1 X100.249 Y119.751 E2.60023
G0 F6000 X100.443 Y119.557
G0 X104.864 Y118.614
G0 X104.834 Y118.694
;TYPE:SKIN
G1 F900 X105.072 Y118.648 E2.60275
G1 X110.76 Y117.548 E2.66316
G1 X116.448 Y116.448 E2.72357
G1 X117.548 Y110.76 E2.78398
G1 X118.648 Y105.072 E2.84439
G1 X118.694 Y104.835 E2.84691
G0 F6000 X118.614 Y104.864
G0 X119.485 Y100.515
G0 X115.136 Y101.386
G0 X115.163 Y101.304
G1 F900 X114.926 Y101.349 E2.84944
G1 X109.001 Y102.495 E2.91291
G1 X103.55 Y103.55 E2.9713
G1 X102.404 Y109.475 E3.03476
G1 X101.349 Y114.926 E3.09315
G0 F6000 X101.269 Y115.129
G1 F900 X101.339 Y115.198 E3.09413
;MESH:NONMESH
G0 F300 X101.339 Y115.198 Z0.24
G0 F6000 X101.386 Y115.136
G0 X100.477 Y119.288
G0 X100.671 Y119.329
;TIME_ELAPSED:17.246991
;LAYER:1
M106 S85
;TYPE:WALL-OUTER
;MESH:Simple.stl
G1 F1089.8 X116.157 Y116.157 E3.40959
G1 X119.329 Y100.671 E3.72504
G1 X103.843 Y103.843 E4.0405
G1 X100.671 Y119.329 E4.35596
G0 F9000 X100.249 Y119.751
G1 F1089.8 X103.256 Y103.256 E4.69056
G1 X119.751 Y100.249 E5.02516
G1 X116.744 Y116.744 E5.35976
G1 X100.249 Y119.751 E5.69436
G0 F9000 X100.443 Y119.557
G0 X101.298 Y115.103
G0 X101.327 Y115.046
;TYPE:SKIN
G1 F1089.8 X101.395 Y114.695 E5.6981
G1 X102.754 Y107.68 E5.7728
G1 X103.433 Y104.172 E5.81016
G1 X103.661 Y103.661 E5.81601
G1 X103.52 Y103.519 E5.8181
G1 X105.575 Y103.162 E5.8399
G1 X112.591 Y101.803 E5.91462
G1 X115.046 Y101.327 E5.94076
G0 F9000 X115.103 Y101.299
G0 X119.485 Y100.515
G0 X118.678 Y105.025
G0 X118.645 Y105.082
G1 F1089.8 X118.577 Y105.433 E5.94441
G1 X117.219 Y112.448 E6.01722
G1 X116.539 Y115.956 E6.05364
G1 X115.956 Y116.539 E6.06204
G1 X108.94 Y117.898 E6.13486
G1 X105.082 Y118.645 E6.17491
G0 F9000 X105.025 Y118.677
G0 X116.093 Y116.659
G0 X116.096 Y116.683
G1 F1089.8 X116.682 Y116.097 E6.18318
G0 F9000 X116.619 Y116.442
G1 F1089.8 X116.442 Y116.62 E6.18568
G0 F9000 X116.524 Y116.524
;MESH:NONMESH
G0 F300 X116.524 Y116.524 Z0.36
G0 F9000 X100.515 Y119.485
G0 X100.671 Y119.329
;TIME_ELAPSED:28.592615
;LAYER:2
M106 S170
;TYPE:WALL-OUTER
;MESH:Simple.stl
G1 F1081.5 X116.157 Y116.157 E6.50114
G1 X119.329 Y100.671 E6.8166
G1 X103.843 Y103.843 E7.13205
G1 X100.671 Y119.329 E7.44751
G0 F12000 X100.249 Y119.751
G1 F1081.5 X103.256 Y103.256 E7.78211
G1 X119.751 Y100.249 E8.11671
G1 X116.744 Y116.744 E8.45131
G1 X100.249 Y119.751 E8.78591
G0 F12000 X100.443 Y119.557
G0 X104.864 Y118.614
G0 X104.834 Y118.694
;TYPE:SKIN
G1 F1081.5 X105.072 Y118.648 E8.78844
G1 X110.76 Y117.548 E8.84885
G1 X116.448 Y116.448 E8.90926
G1 X117.548 Y110.76 E8.96966
G1 X118.648 Y105.072 E9.03007
G1 X118.694 Y104.835 E9.03259
G0 F12000 X118.614 Y104.864
G0 X119.485 Y100.515
G0 X115.136 Y101.386
G0 X115.163 Y101.304
G1 F1081.5 X114.926 Y101.349 E9.03513
G1 X109.001 Y102.495 E9.09859
G1 X103.55 Y103.55 E9.15698
G1 X102.404 Y109.475 E9.22045
G1 X101.349 Y114.926 E9.27884
G0 F12000 X101.269 Y115.129
G1 F1081.5 X101.339 Y115.198 E9.27982
;MESH:NONMESH
G0 F300 X101.339 Y115.198 Z0.48
G0 F12000 X101.386 Y115.136
G0 X100.477 Y119.288
G0 X100.671 Y119.329
;TIME_ELAPSED:39.496030
;LAYER:3
M106 S255
;TYPE:WALL-OUTER
;MESH:Simple.stl
G1 F1084.1 X116.157 Y116.157 E9.59527
G1 X119.329 Y100.671 E9.91073
G1 X103.843 Y103.843 E10.22618
G1 X100.671 Y119.329 E10.54164
G0 F12000 X100.249 Y119.751
G1 F1084.1 X103.256 Y103.256 E10.87624
G1 X119.751 Y100.249 E11.21084
G1 X116.744 Y116.744 E11.54544
G1 X100.249 Y119.751 E11.88004
G0 F12000 X100.443 Y119.557
G0 X101.298 Y115.103
G0 X101.327 Y115.046
;TYPE:SKIN
G1 F1084.1 X101.395 Y114.695 E11.88378
G1 X102.754 Y107.68 E11.95848
G1 X103.433 Y104.172 E11.99584
G1 X103.661 Y103.661 E12.00169
G1 X103.52 Y103.519 E12.00378
G1 X105.575 Y103.162 E12.02559
G1 X112.591 Y101.803 E12.1003
G1 X115.046 Y101.327 E12.12645
G0 F12000 X115.103 Y101.299
G0 X119.485 Y100.515
G0 X118.678 Y105.025
G0 X118.645 Y105.082
G1 F1084.1 X118.577 Y105.433 E12.13009
G1 X117.219 Y112.448 E12.20291
G1 X116.539 Y115.956 E12.23932
G1 X115.956 Y116.539 E12.24772
G1 X108.94 Y117.898 E12.32055
G1 X105.082 Y118.645 E12.3606
G0 F12000 X105.025 Y118.677
G0 X116.093 Y116.659
G0 X116.096 Y116.683
G1 F1084.1 X116.682 Y116.097 E12.36886
G0 F12000 X116.619 Y116.442
G1 F1084.1 X116.442 Y116.62 E12.37137
G0 F12000 X116.524 Y116.524
;MESH:NONMESH
G0 F300 X116.524 Y116.524 Z0.6
G0 F12000 X100.515 Y119.485
G0 X100.671 Y119.329
;TIME_ELAPSED:50.898204
;LAYER:4
;TYPE:WALL-OUTER
;MESH:Simple.stl
G1 F1081.5 X116.157 Y116.157 E12.68683
G1 X119.329 Y100.671 E13.00228
G1 X103.843 Y103.843 E13.31774
G1 X100.671 Y119.329 E13.63319
G0 F12000 X100.249 Y119.751
G1 F1081.5 X103.256 Y103.256 E13.96779
G1 X119.751 Y100.249 E14.3024
G1 X116.744 Y116.744 E14.637
G1 X100.249 Y119.751 E14.9716
G0 F12000 X100.443 Y119.557
G0 X104.864 Y118.614
G0 X104.834 Y118.694
;TYPE:SKIN
G1 F1081.5 X105.072 Y118.648 E14.97412
G1 X110.76 Y117.548 E15.03453
G1 X116.448 Y116.448 E15.09494
G1 X117.548 Y110.76 E15.15535
G1 X118.648 Y105.072 E15.21576
G1 X118.694 Y104.835 E15.21828
G0 F12000 X118.614 Y104.864
G0 X119.485 Y100.515
G0 X115.136 Y101.386
G0 X115.163 Y101.304
G1 F1081.5 X114.926 Y101.349 E15.22081
G1 X109.001 Y102.495 E15.28428
G1 X103.55 Y103.55 E15.34267
G1 X102.404 Y109.475 E15.40613
G1 X101.349 Y114.926 E15.46452
G0 F12000 X101.269 Y115.129
G1 F1081.5 X101.339 Y115.198 E15.4655
;MESH:NONMESH
G0 F300 X101.339 Y115.198 Z0.72
G0 F12000 X101.386 Y115.136
G0 X100.477 Y119.288
G0 X100.671 Y119.329
;TIME_ELAPSED:61.801620
;LAYER:5
;TYPE:WALL-OUTER
;MESH:Simple.stl
G1 F1084.1 X116.157 Y116.157 E15.78096
G1 X119.329 Y100.671 E16.09641
G1 X103.843 Y103.843 E16.41187
G1 X100.671 Y119.329 E16.72733
G0 F12000 X100.249 Y119.751
G1 F1084.1 X103.256 Y103.256 E17.06193
G1 X119.751 Y100.249 E17.39653
G1 X116.744 Y116.744 E17.73113
G1 X100.249 Y119.751 E18.06573
G0 F12000 X100.443 Y119.557
G0 X101.298 Y115.103
G0 X101.327 Y115.046
;TYPE:SKIN
G1 F1084.1 X101.395 Y114.695 E18.06947
G1 X102.754 Y107.68 E18.14417
G1 X103.433 Y104.172 E18.18153
G1 X103.661 Y103.661 E18.18738
G1 X103.52 Y103.519 E18.18947
G1 X105.575 Y103.162 E18.21127
G1 X112.591 Y101.803 E18.28599
G1 X115.046 Y101.327 E18.31213
G0 F12000 X115.103 Y101.299
G0 X119.485 Y100.515
G0 X118.678 Y105.025
G0 X118.645 Y105.082
G1 F1084.1 X118.577 Y105.433 E18.31578
G1 X117.219 Y112.448 E18.38859
G1 X116.539 Y115.956 E18.42501
G1 X115.956 Y116.539 E18.43341
G1 X108.94 Y117.898 E18.50623
G1 X105.082 Y118.645 E18.54628
G0 F12000 X105.025 Y118.677
G0 X116.093 Y116.659
G0 X116.096 Y116.683
G1 F1084.1 X116.682 Y116.097 E18.55455
G0 F12000 X116.619 Y116.442
G1 F1084.1 X116.442 Y116.62 E18.55705
G0 F12000 X116.524 Y116.524
;MESH:NONMESH
G0 F300 X116.524 Y116.524 Z0.84
G0 F12000 X100.515 Y119.485
G0 X100.671 Y119.329
;TIME_ELAPSED:73.203794
;LAYER:6
;TYPE:WALL-OUTER
;MESH:Simple.stl
G1 F1081.5 X116.157 Y116.157 E18.87251
G1 X119.329 Y100.671 E19.18797
G1 X103.843 Y103.843 E19.50342
G1 X100.671 Y119.329 E19.81888
G0 F12000 X100.249 Y119.751
G1 F1081.5 X103.256 Y103.256 E20.15348
G1 X119.751 Y100.249 E20.48808
G1 X116.744 Y116.744 E20.82268
G1 X100.249 Y119.751 E21.15728
G0 F12000 X100.443 Y119.557
G0 X104.864 Y118.614
G0 X104.834 Y118.694
;TYPE:SKIN
G1 F1081.5 X105.072 Y118.648 E21.15981
G1 X110.76 Y117.548 E21.22022
G1 X116.448 Y116.448 E21.28063
G1 X117.548 Y110.76 E21.34103
G1 X118.648 Y105.072 E21.40144
G1 X118.694 Y104.835 E21.40396
G0 F12000 X118.614 Y104.864
G0 X119.485 Y100.515
G0 X115.136 Y101.386
G0 X115.163 Y101.304
G1 F1081.5 X114.926 Y101.349 E21.4065
G1 X109.001 Y102.495 E21.46996
G1 X103.55 Y103.55 E21.52835
G1 X102.404 Y109.475 E21.59182
G1 X101.349 Y114.926 E21.6502
G0 F12000 X101.269 Y115.129
G1 F1081.5 X101.339 Y115.198 E21.65119
;MESH:NONMESH
G0 F300 X101.339 Y115.198 Z0.96
G0 F12000 X101.386 Y115.136
G0 X100.477 Y119.288
G0 X100.671 Y119.329
;TIME_ELAPSED:84.107209
;LAYER:7
;TYPE:WALL-OUTER
;MESH:Simple.stl
G1 F1084.1 X116.157 Y116.157 E21.96664
G1 X119.329 Y100.671 E22.2821
G1 X103.843 Y103.843 E22.59755
G1 X100.671 Y119.329 E22.91301
G0 F12000 X100.249 Y119.751
G1 F1084.1 X103.256 Y103.256 E23.24761
G1 X119.751 Y100.249 E23.58221
G1 X116.744 Y116.744 E23.91681
G1 X100.249 Y119.751 E24.25141
G0 F12000 X100.443 Y119.557
G0 X101.298 Y115.103
G0 X101.327 Y115.046
;TYPE:SKIN
G1 F1084.1 X101.395 Y114.695 E24.25515
G1 X102.754 Y107.68 E24.32985
G1 X103.433 Y104.172 E24.36721
G1 X103.661 Y103.661 E24.37306
G1 X103.52 Y103.519 E24.37515
G1 X105.575 Y103.162 E24.39696
G1 X112.591 Y101.803 E24.47167
G1 X115.046 Y101.327 E24.49782
G0 F12000 X115.103 Y101.299
G0 X119.485 Y100.515
G0 X118.678 Y105.025
G0 X118.645 Y105.082
G1 F1084.1 X118.577 Y105.433 E24.50146
G1 X117.219 Y112.448 E24.57428
G1 X116.539 Y115.956 E24.61069
G1 X115.956 Y116.539 E24.61909
G1 X108.94 Y117.898 E24.69192
G1 X105.082 Y118.645 E24.73196
G0 F12000 X105.025 Y118.677
G0 X116.093 Y116.659
G0 X116.096 Y116.683
G1 F1084.1 X116.682 Y116.097 E24.74023
G0 F12000 X116.619 Y116.442
G1 F1084.1 X116.442 Y116.62 E24.74274
G0 F12000 X116.524 Y116.524
;MESH:NONMESH
G0 F300 X116.524 Y116.524 Z1.08
G0 F12000 X100.515 Y119.485
G0 X100.671 Y119.329
;TIME_ELAPSED:95.509384
;LAYER:8
;TYPE:WALL-OUTER
;MESH:Simple.stl
G1 F1081.5 X116.157 Y116.157 E25.05819
G1 X119.329 Y100.671 E25.37365
G1 X103.843 Y103.843 E25.68911
G1 X100.671 Y119.329 E26.00456
G0 F12000 X100.249 Y119.751
G1 F1081.5 X103.256 Y103.256 E26.33916
G1 X119.751 Y100.249 E26.67376
G1 X116.744 Y116.744 E27.00836
G1 X100.249 Y119.751 E27.34297
G0 F12000 X100.443 Y119.557
G0 X104.864 Y118.614
G0 X104.834 Y118.694
;TYPE:SKIN
G1 F1081.5 X105.072 Y118.648 E27.34549
G1 X110.76 Y117.548 E27.4059
G1 X116.448 Y116.448 E27.46631
G1 X117.548 Y110.76 E27.52672
G1 X118.648 Y105.072 E27.58713
G1 X118.694 Y104.835 E27.58964
G0 F12000 X118.614 Y104.864
G0 X119.485 Y100.515
G0 X115.136 Y101.386
G0 X115.163 Y101.304
G1 F1081.5 X114.926 Y101.349 E27.59218
G1 X109.001 Y102.495 E27.65565
G1 X103.55 Y103.55 E27.71404
G1 X102.404 Y109.475 E27.7775
G1 X101.349 Y114.926 E27.83589
G0 F12000 X101.269 Y115.129
G1 F1081.5 X101.339 Y115.198 E27.83687
;MESH:NONMESH
G0 F300 X101.339 Y115.198 Z1.2
G0 F12000 X101.386 Y115.136
G0 X100.477 Y119.288
G0 X100.671 Y119.329
;TIME_ELAPSED:106.412799
;LAYER:9
;TYPE:WALL-OUTER
;MESH:Simple.stl
G1 F1084.1 X116.157 Y116.157 E28.15233
G1 X119.329 Y100.671 E28.46778
G1 X103.843 Y103.843 E28.78324
G1 X100.671 Y119.329 E29.09869
G0 F12000 X100.249 Y119.751
G1 F1084.1 X103.256 Y103.256 E29.4333
G1 X119.751 Y100.249 E29.7679
G1 X116.744 Y116.744 E30.1025
G1 X100.249 Y119.751 E30.4371
G0 F12000 X100.443 Y119.557
G0 X101.298 Y115.103
G0 X101.327 Y115.046
;TYPE:SKIN
G1 F1084.1 X101.395 Y114.695 E30.44083
G1 X102.754 Y107.68 E30.51554
G1 X103.433 Y104.172 E30.55289
G1 X103.661 Y103.661 E30.55874
G1 X103.52 Y103.519 E30.56084
G1 X105.575 Y103.162 E30.58264
G1 X112.591 Y101.803 E30.65736
G1 X115.046 Y101.327 E30.6835
G0 F12000 X115.103 Y101.299
G0 X119.485 Y100.515
G0 X118.678 Y105.025
G0 X118.645 Y105.082
G1 F1084.1 X118.577 Y105.433 E30.68715
G1 X117.219 Y112.448 E30.75996
G1 X116.539 Y115.956 E30.79637
G1 X115.956 Y116.539 E30.80478
G1 X108.94 Y117.898 E30.8776
G1 X105.082 Y118.645 E30.91765
G0 F12000 X105.025 Y118.677
G0 X116.093 Y116.659
G0 X116.096 Y116.683
G1 F1084.1 X116.682 Y116.097 E30.92592
G0 F12000 X116.619 Y116.442
G1 F1084.1 X116.442 Y116.62 E30.92842
G0 F12000 X116.524 Y116.524
;MESH:NONMESH
G0 F300 X116.524 Y116.524 Z1.32
G0 F12000 X100.515 Y119.485
G0 X100.671 Y119.329
;TIME_ELAPSED:117.814973
;LAYER:10
;TYPE:WALL-OUTER
;MESH:Simple.stl
G1 F1081.5 X116.157 Y116.157 E31.24388
G1 X119.329 Y100.671 E31.55934
G1 X103.843 Y103.843 E31.87479
G1 X100.671 Y119.329 E32.19025
G0 F12000 X100.249 Y119.751
G1 F1081.5 X103.256 Y103.256 E32.52485
G1 X119.751 Y100.249 E32.85945
G1 X116.744 Y116.744 E33.19405
G1 X100.249 Y119.751 E33.52865
G0 F12000 X100.443 Y119.557
G0 X104.864 Y118.614
G0 X104.834 Y118.694
;TYPE:SKIN
G1 F1081.5 X105.072 Y118.648 E33.53118
G1 X110.76 Y117.548 E33.59159
G1 X116.448 Y116.448 E33.65199
G1 X117.548 Y110.76 E33.7124
G1 X118.648 Y105.072 E33.77281
G1 X118.694 Y104.835 E33.77533
G0 F12000 X118.614 Y104.864
G0 X119.485 Y100.515
G0 X115.136 Y101.386
G0 X115.163 Y101.304
G1 F1081.5 X114.926 Y101.349 E33.77787
G1 X109.001 Y102.495 E33.84133
G1 X103.55 Y103.55 E33.89972
G1 X102.404 Y109.475 E33.96318
G1 X101.349 Y114.926 E34.02157
G0 F12000 X101.269 Y115.129
G1 F1081.5 X101.339 Y115.198 E34.02255
;MESH:NONMESH
G0 F300 X101.339 Y115.198 Z1.44
G0 F12000 X101.386 Y115.136
G0 X100.477 Y119.288
G0 X100.671 Y119.329
;TIME_ELAPSED:128.718389
;LAYER:11
;TYPE:WALL-OUTER
;MESH:Simple.stl
G1 F1084.1 X116.157 Y116.157 E34.33801
G1 X119.329 Y100.671 E34.65347
G1 X103.843 Y103.843 E34.96892
G1 X100.671 Y119.329 E35.28438
G0 F12000 X100.249 Y119.751
G1 F1084.1 X103.256 Y103.256 E35.61898
G1 X119.751 Y100.249 E35.95358
G1 X116.744 Y116.744 E36.28818
G1 X100.249 Y119.751 E36.62278
G0 F12000 X100.443 Y119.557
G0 X101.298 Y115.103
G0 X101.327 Y115.046
;TYPE:SKIN
G1 F1084.1 X101.395 Y114.695 E36.62652
G1 X102.754 Y107.68 E36.70122
G1 X103.433 Y104.172 E36.73858
G1 X103.661 Y103.661 E36.74443
G1 X103.52 Y103.519 E36.74652
G1 X105.575 Y103.162 E36.76833
G1 X112.591 Y101.803 E36.84304
G1 X115.046 Y101.327 E36.86919
G0 F12000 X115.103 Y101.299
G0 X119.485 Y100.515
G0 X118.678 Y105.025
G0 X118.645 Y105.082
G1 F1084.1 X118.577 Y105.433 E36.87283
G1 X117.219 Y112.448 E36.94564
G1 X116.539 Y115.956 E36.98206
G1 X115.956 Y116.539 E36.99046
G1 X108.94 Y117.898 E37.06329
G1 X105.082 Y118.645 E37.10333
G0 F12000 X105.025 Y118.677
G0 X116.093 Y116.659
G0 X116.096 Y116.683
G1 F1084.1 X116.682 Y116.097 E37.1116
G0 F12000 X116.619 Y116.442
G1 F1084.1 X116.442 Y116.62 E37.11411
G0 F12000 X116.524 Y116.524
;MESH:NONMESH
G0 F300 X116.524 Y116.524 Z1.56
G0 F12000 X100.515 Y119.485
G0 X100.671 Y119.329
;TIME_ELAPSED:140.120563
;LAYER:12
;TYPE:WALL-OUTER
;MESH:Simple.stl
G1 F1081.5 X116.157 Y116.157 E37.42956
G1 X119.329 Y100.671 E37.74502
G1 X103.843 Y103.843 E38.06048
G1 X100.671 Y119.329 E38.37593
G0 F12000 X100.249 Y119.751
G1 F1081.5 X103.256 Y103.256 E38.71053
G1 X119.751 Y100.249 E39.04513
G1 X116.744 Y116.744 E39.37973
G1 X100.249 Y119.751 E39.71433
G0 F12000 X100.443 Y119.557
G0 X104.864 Y118.614
G0 X104.834 Y118.694
;TYPE:SKIN
G1 F1081.5 X105.072 Y118.648 E39.71686
G1 X110.76 Y117.548 E39.77727
G1 X116.448 Y116.448 E39.83768
G1 X117.548 Y110.76 E39.89809
G1 X118.648 Y105.072 E39.9585
G1 X118.694 Y104.835 E39.96101
G0 F12000 X118.614 Y104.864
G0 X119.485 Y100.515
G0 X115.136 Y101.386
G0 X115.163 Y101.304
G1 F1081.5 X114.926 Y101.349 E39.96355
G1 X109.001 Y102.495 E40.02702
G1 X103.55 Y103.55 E40.0854
G1 X102.404 Y109.475 E40.14887
G1 X101.349 Y114.926 E40.20726
G0 F12000 X101.269 Y115.129
G1 F1081.5 X101.339 Y115.198 E40.20824
;MESH:NONMESH
G0 F300 X101.339 Y115.198 Z1.68
G0 F12000 X101.386 Y115.136
G0 X100.477 Y119.288
G0 X100.671 Y119.329
