; generated by PrusaSlicer 2.3.1+linux-x64 on 2021-06-29 at 13:08:08 UTC

; 

; external perimeters extrusion width = 0.45mm
; perimeters extrusion width = 0.45mm
; infill extrusion width = 0.45mm
; solid infill extrusion width = 0.45mm
; top infill extrusion width = 0.40mm
; first layer extrusion width = 0.42mm

M201 X500 Y500 Z100 E1000 ; sets maximum accelerations, mm/sec^2
M203 X500 Y500 Z5 E60 ; sets maximum feedrates, mm/sec
M204 P500 R1000 T500 ; sets acceleration (P, T) and retract acceleration (R), mm/sec^2
M205 X8.00 Y8.00 Z0.40 E5.00 ; sets the jerk limits, mm/sec
M205 S0 T0 ; sets the minimum extruding and travel feed rate, mm/sec
M107
;TYPE:Custom
G90 ; use absolute coordinates
M83 ; extruder relative mode
M140 S70 ; set final bed temp
M104 S150 ; set temporary nozzle temp to prevent oozing during homing
G4 S10 ; allow partial nozzle warmup
G28 ; home all axis
G1 Z50 F240
G1 X2 Y10 F3000
M104 S240 ; set final nozzle temp
M190 S70 ; wait for bed temp to stabilize
M109 S240 ; wait for nozzle temp to stabilize
G1 Z0.28 F240
G92 E0
G1 Y140 E10 F1500 ; prime the nozzle
G1 X2.3 F5000
G92 E0
G1 Y10 E10 F1200 ; prime the nozzle
G92 E0
G21 ; set units to millimeters
G90 ; use absolute coordinates
M83 ; use relative distances for extrusion
; Filament gcode
;LAYER_CHANGE
;Z:0.2
;HEIGHT:0.2
;BEFORE_LAYER_CHANGE
G92 E0
;0.2


G1 E-6.00000 F3600.000
G1 Z0.200 F9000.000
;AFTER_LAYER_CHANGE
;0.2
G1 X108.749 Y106.249
G1 E6.00000 F2400.000
M204 S500
;TYPE:External perimeter
;WIDTH:0.42
G1 F900
G1 X112.766 Y105.429 E0.12855
G1 X121.368 Y103.763 E0.27472
G1 X124.341 Y103.159 E0.09511
G1 X123.782 Y105.899 E0.08767
G1 X122.085 Y114.662 E0.27987
G1 X121.251 Y118.751 E0.13084
G1 X117.162 Y119.585 E0.13084
G1 X108.399 Y121.282 E0.27987
G1 X105.659 Y121.841 E0.08767
G1 X106.218 Y119.101 E0.08767
G1 X107.915 Y110.338 E0.27987
G1 X108.737 Y106.308 E0.12895
G1 X108.722 Y105.850 F9000.000
G1 X108.350 Y105.850
G1 F900
G1 X112.490 Y105.094 E0.13195
G1 X121.656 Y103.323 E0.29269
G1 X124.059 Y102.885 E0.07661
G1 X124.663 Y102.837 E0.01900
G1 X124.614 Y103.448 E0.01922
G1 X124.172 Y105.870 E0.07719
G1 X122.480 Y114.617 E0.27936
G1 X121.650 Y119.150 E0.14447
G1 X117.027 Y119.997 E0.14736
G1 X108.344 Y121.677 E0.27728
G1 X105.941 Y122.115 E0.07661
G1 X105.337 Y122.163 E0.01899
G1 X105.385 Y121.559 E0.01899
G1 X105.823 Y119.156 E0.07661
G1 X107.503 Y110.473 E0.27728
G1 X108.339 Y105.909 E0.14547
G1 X108.708 Y106.030 F9000.000
G1 E-4.20000 F3600.000
;WIPE_START
G1 F7200.000
G1 X111.872 Y105.216 E-1.71000
;WIPE_END
G1 E-0.09000 F3600.000
G1 X110.477 Y105.679 F9000.000
G1 E6.00000 F2400.000
;TYPE:Gap fill
;WIDTH:0.132899
G1 F900
G1 X108.555 Y106.055 E0.01466
G1 X108.163 Y108.057 E0.01527
G1 E-4.20000 F3600.000
;WIPE_START
G1 F7200.000
G1 X108.555 Y106.055 E-0.96928
G1 X110.085 Y105.756 E-0.74072
;WIPE_END
G1 E-0.09000 F3600.000
G1 X119.443 Y119.337 F9000.000
G1 E6.00000 F2400.000
;WIDTH:0.133029
G1 F900
G1 X121.445 Y118.945 E0.01529
G1 X121.834 Y116.957 E0.01518
;LAYER_CHANGE
;Z:0.32
;HEIGHT:0.12
;BEFORE_LAYER_CHANGE
G92 E0
;0.32


G1 E-4.20000 F3600.000
;WIPE_START
G1 F7200.000
G1 X121.445 Y118.945 E-0.96224
G1 X119.900 Y119.248 E-0.74776
;WIPE_END
G1 E-0.09000 F3600.000
G1 Z0.320 F9000.000
;AFTER_LAYER_CHANGE
;0.32
G1 X121.178 Y118.678
G1 E6.00000 F2400.000
;TYPE:External perimeter
;WIDTH:0.45
G1 F900
G1 X105.640 Y121.860 E0.33572
G1 X108.822 Y106.322 E0.33572
G1 X124.360 Y103.140 E0.33572
G1 X121.191 Y118.620 E0.33445
G1 X121.333 Y119.047 F9000.000
G1 X121.723 Y119.223
G1 F900
G1 X105.280 Y122.220 E0.35377
G1 X108.277 Y105.777 E0.35377
G1 X124.720 Y102.780 E0.35377
G1 X121.734 Y119.164 E0.35250
G1 X121.327 Y119.166 F9000.000
G1 E-4.20000 F3600.000
;WIPE_START
G1 F7200.000
G1 X118.194 Y119.821 E-1.71000
;WIPE_END
G1 E-0.09000 F3600.000
G1 X122.153 Y115.311 F9000.000
G1 E6.00000 F2400.000
;TYPE:Gap fill
;WIDTH:0.119468
G1 F900
G1 X122.853 Y111.694 E0.01723
G1 E-4.20000 F3600.000
;WIPE_START
G1 F7200.000
G1 X122.169 Y115.228 E-1.71000
;WIPE_END
G1 E-0.09000 F3600.000
G1 X122.153 Y115.311 F9000.000
G1 E6.00000 F2400.000
;WIDTH:0.1989
G1 F900
G1 X121.440 Y118.940 E0.03195
G1 X117.787 Y119.657 E0.03217
;WIDTH:0.158742
G1
G1 X115.990 Y120.005 E0.01214
;WIDTH:0.119247
G1
G1 X114.194 Y120.353 E0.00854
G1 E-4.20000 F3600.000
;WIPE_START
G1 F7200.000
G1 X115.990 Y120.005 E-0.86916
;WIPE_END
G1 E-0.93084 F3600.000
G1 X107.147 Y113.306 F9000.000
G1 E6.00000 F2400.000
;WIDTH:0.119247
G1 F900
G1 X107.495 Y111.510 E0.00854
;WIDTH:0.158741
G1
G1 X107.843 Y109.714 E0.01214
;WIDTH:0.198237
G1
G1 X108.560 Y106.060 E0.03204
G1 X112.213 Y105.343 E0.03204
;WIDTH:0.119247
G1
G1 X115.806 Y104.647 E0.01707
;LAYER_CHANGE
;Z:0.44
;HEIGHT:0.12
;BEFORE_LAYER_CHANGE
G92 E0
;0.44


G1 E-4.20000 F3600.000
;WIPE_START
G1 F7200.000
G1 X112.272 Y105.331 E-1.71000
;WIPE_END
G1 E-0.09000 F3600.000
G1 Z0.440 F9000.000
;AFTER_LAYER_CHANGE
;0.44
G1 X121.178 Y118.678
G1 E6.00000 F2400.000
;TYPE:External perimeter
;WIDTH:0.45
G1 F900
G1 X105.640 Y121.860 E0.33572
G1 X108.822 Y106.322 E0.33572
G1 X124.360 Y103.140 E0.33572
G1 X121.191 Y118.620 E0.33445
G1 X121.333 Y119.047 F9000.000
G1 X121.723 Y119.223
G1 F900
G1 X105.280 Y122.220 E0.35377
G1 X108.277 Y105.777 E0.35377
G1 X124.720 Y102.780 E0.35377
G1 X121.734 Y119.164 E0.35250
G1 X121.327 Y119.166 F9000.000
G1 E-4.20000 F3600.000
;WIPE_START
G1 F7200.000
G1 X118.194 Y119.821 E-1.71000
;WIPE_END
G1 E-0.09000 F3600.000
G1 X121.999 Y116.105 F9000.000
G1 E6.00000 F2400.000
;TYPE:Gap fill
;WIDTH:0.128132
G1 F900
G1 X122.853 Y111.694 E0.02295
G1 E-4.20000 F3600.000
;WIPE_START
G1 F7200.000
G1 X122.169 Y115.228 E-1.71000
;WIPE_END
G1 E-0.09000 F3600.000
G1 X121.999 Y116.105 F9000.000
G1 E6.00000 F2400.000
;WIDTH:0.207122
G1 F900
G1 X121.440 Y118.940 E0.02615
G1 X117.787 Y119.657 E0.03369
;WIDTH:0.158742
G1
G1 X115.990 Y120.005 E0.01214
;WIDTH:0.119247
G1
G1 X114.194 Y120.353 E0.00854
G1 E-4.20000 F3600.000
;WIPE_START
G1 F7200.000
G1 X115.990 Y120.005 E-0.86916
;WIPE_END
G1 E-0.93084 F3600.000
G1 X107.147 Y113.306 F9000.000
G1 E6.00000 F2400.000
;WIDTH:0.119247
G1 F900
G1 X107.495 Y111.510 E0.00854
;WIDTH:0.158741
G1
G1 X107.843 Y109.714 E0.01214
;WIDTH:0.198237
G1
G1 X108.560 Y106.060 E0.03204
G1 X112.214 Y105.343 E0.03204
;WIDTH:0.119247
G1
G1 X115.806 Y104.647 E0.01707
M106 S127.5
;LAYER_CHANGE
;Z:0.56
;HEIGHT:0.12
;BEFORE_LAYER_CHANGE
G92 E0
;0.56


G1 E-4.20000 F3600.000
;WIPE_START
G1 F7200.000
G1 X112.272 Y105.331 E-1.71000
;WIPE_END
G1 E-0.09000 F3600.000
G1 Z0.560 F9000.000
;AFTER_LAYER_CHANGE
;0.56
G1 X121.178 Y118.678
G1 E6.00000 F2400.000
;TYPE:External perimeter
;WIDTH:0.45
G1 F900
G1 X105.640 Y121.860 E0.33572
G1 X108.822 Y106.322 E0.33572
G1 X124.360 Y103.140 E0.33572
G1 X121.191 Y118.620 E0.33445
G1 X121.333 Y119.047 F9000.000
G1 X121.723 Y119.223
G1 F900
G1 X105.280 Y122.220 E0.35377
G1 X108.277 Y105.777 E0.35377
G1 X124.720 Y102.780 E0.35377
G1 X121.734 Y119.164 E0.35250
G1 X121.327 Y119.166 F9000.000
G1 E-4.20000 F3600.000
;WIPE_START
G1 F7200.000
G1 X118.194 Y119.821 E-1.71000
;WIPE_END
G1 E-0.09000 F3600.000
G1 X117.787 Y119.657 F9000.000
G1 E6.00000 F2400.000
;TYPE:Gap fill
;WIDTH:0.158742
G1 F900
G1 X115.990 Y120.005 E0.01214
;WIDTH:0.119247
G1
G1 X114.194 Y120.353 E0.00854
G1 E-4.20000 F3600.000
;WIPE_START
G1 F7200.000
G1 X115.990 Y120.005 E-0.86916
;WIPE_END
G1 E-0.93084 F3600.000
G1 X117.787 Y119.657 F9000.000
G1 E6.00000 F2400.000
;WIDTH:0.195927
G1 F900
G1 X121.440 Y118.940 E0.03161
G1 X122.195 Y115.091 E0.03331
;WIDTH:0.116939
G1
G1 X122.853 Y111.694 E0.01574
G1 E-4.20000 F3600.000
;WIPE_START
G1 F7200.000
G1 X122.195 Y115.091 E-1.64353
;WIPE_END
G1 E-0.15647 F3600.000
G1 X115.806 Y104.647 F9000.000
G1 E6.00000 F2400.000
;WIDTH:0.119247
G1 F900
G1 X112.213 Y105.343 E0.01707
;WIDTH:0.198237
G1
G1 X108.560 Y106.060 E0.03204
G1 X107.843 Y109.714 E0.03204
;WIDTH:0.158741
G1
G1 X107.495 Y111.510 E0.01214
;WIDTH:0.119247
G1
G1 X107.147 Y113.306 E0.00854
;LAYER_CHANGE
;Z:0.68
;HEIGHT:0.12
;BEFORE_LAYER_CHANGE
G92 E0
;0.68


G1 E-4.20000 F3600.000
;WIPE_START
G1 F7200.000
G1 X107.495 Y111.510 E-0.86916
;WIPE_END
G1 E-0.93084 F3600.000
G1 Z0.680 F9000.000
;AFTER_LAYER_CHANGE
;0.68
G1 X121.178 Y118.678
G1 E6.00000 F2400.000
;TYPE:External perimeter
;WIDTH:0.45
G1 F900
G1 X105.640 Y121.860 E0.33572
G1 X108.822 Y106.322 E0.33572
G1 X124.360 Y103.140 E0.33572
G1 X121.191 Y118.620 E0.33445
G1 X121.333 Y119.047 F9000.000
G1 X121.723 Y119.223
G1 F900
G1 X105.280 Y122.220 E0.35377
G1 X108.277 Y105.777 E0.35377
G1 X124.720 Y102.780 E0.35377
G1 X121.734 Y119.164 E0.35250
G1 X121.327 Y119.166 F9000.000
G1 E-4.20000 F3600.000
;WIPE_START
G1 F7200.000
G1 X118.194 Y119.821 E-1.71000
;WIPE_END
G1 E-0.09000 F3600.000
G1 X122.082 Y115.677 F9000.000
G1 E6.00000 F2400.000
;TYPE:Gap fill
;WIDTH:0.105745
G1 F900
G1 X122.853 Y111.694 E0.01619
G1 E-4.20000 F3600.000
;WIPE_START
G1 F7200.000
G1 X122.169 Y115.228 E-1.71000
;WIPE_END
G1 E-0.09000 F3600.000
G1 X122.082 Y115.677 F9000.000
G1 E6.00000 F2400.000
;WIDTH:0.202399
G1 F900
G1 X121.440 Y118.940 E0.02931
G1 X117.787 Y119.657 E0.03282
;WIDTH:0.158742
G1
G1 X115.990 Y120.005 E0.01214
;WIDTH:0.119247
G1
G1 X114.194 Y120.353 E0.00854
G1 E-4.20000 F3600.000
;WIPE_START
G1 F7200.000
G1 X115.990 Y120.005 E-0.86916
;WIPE_END
G1 E-0.93084 F3600.000
G1 X107.147 Y113.306 F9000.000
G1 E6.00000 F2400.000
;WIDTH:0.119247
G1 F900
G1 X107.495 Y111.510 E0.00854
;WIDTH:0.158741
G1
G1 X107.843 Y109.714 E0.01214
;WIDTH:0.198237
G1
G1 X108.560 Y106.060 E0.03204
G1 X112.214 Y105.343 E0.03204
;WIDTH:0.119247
G1
G1 X115.806 Y104.647 E0.01707
;LAYER_CHANGE
;Z:0.8
;HEIGHT:0.12
;BEFORE_LAYER_CHANGE
G92 E0
;0.8


G1 E-4.20000 F3600.000
;WIPE_START
G1 F7200.000
G1 X112.272 Y105.331 E-1.71000
;WIPE_END
G1 E-0.09000 F3600.000
G1 Z0.800 F9000.000
;AFTER_LAYER_CHANGE
;0.8
G1 X121.178 Y118.678
G1 E6.00000 F2400.000
;TYPE:External perimeter
;WIDTH:0.45
G1 F900
G1 X105.640 Y121.860 E0.33572
G1 X108.822 Y106.322 E0.33572
G1 X124.360 Y103.140 E0.33572
G1 X121.191 Y118.620 E0.33445
G1 X121.333 Y119.047 F9000.000
G1 X121.723 Y119.223
G1 F900
G1 X105.280 Y122.220 E0.35377
G1 X108.277 Y105.777 E0.35377
G1 X124.720 Y102.780 E0.35377
G1 X121.734 Y119.164 E0.35250
G1 X121.327 Y119.166 F9000.000
G1 E-4.20000 F3600.000
;WIPE_START
G1 F7200.000
G1 X118.194 Y119.821 E-1.71000
;WIPE_END
G1 E-0.09000 F3600.000
G1 X117.787 Y119.657 F9000.000
G1 E6.00000 F2400.000
;TYPE:Gap fill
;WIDTH:0.158742
G1 F900
G1 X115.990 Y120.005 E0.01214
;WIDTH:0.119247
G1
G1 X114.194 Y120.353 E0.00854
G1 E-4.20000 F3600.000
;WIPE_START
G1 F7200.000
G1 X115.990 Y120.005 E-0.86916
;WIPE_END
G1 E-0.93084 F3600.000
G1 X117.787 Y119.657 F9000.000
G1 E6.00000 F2400.000
;WIDTH:0.194937
G1 F900
G1 X121.440 Y118.940 E0.03143
G1 X122.213 Y115.001 E0.03389
;WIDTH:0.10935
G1
G1 X122.853 Y111.694 E0.01405
G1 E-4.20000 F3600.000
;WIPE_START
G1 F7200.000
G1 X122.213 Y115.001 E-1.60008
;WIPE_END
G1 E-0.19992 F3600.000
G1 X115.806 Y104.647 F9000.000
G1 E6.00000 F2400.000
;WIDTH:0.119247
G1 F900
G1 X112.213 Y105.343 E0.01707
;WIDTH:0.198237
G1
G1 X108.560 Y106.060 E0.03204
G1 X107.843 Y109.714 E0.03204
;WIDTH:0.158741
G1
G1 X107.495 Y111.510 E0.01214
;WIDTH:0.119247
G1
G1 X107.147 Y113.306 E0.00854
;LAYER_CHANGE
;Z:0.92
;HEIGHT:0.12
;BEFORE_LAYER_CHANGE
G92 E0
;0.92


G1 E-4.20000 F3600.000
;WIPE_START
G1 F7200.000
G1 X107.495 Y111.510 E-0.86916
;WIPE_END
G1 E-0.93084 F3600.000
G1 Z0.920 F9000.000
;AFTER_LAYER_CHANGE
;0.92
G1 X121.178 Y118.678
G1 E6.00000 F2400.000
;TYPE:External perimeter
;WIDTH:0.45
G1 F900
G1 X105.640 Y121.860 E0.33572
G1 X108.822 Y106.322 E0.33572
G1 X124.360 Y103.140 E0.33572
G1 X121.191 Y118.620 E0.33445
G1 X121.333 Y119.047 F9000.000
G1 X121.723 Y119.223
G1 F900
G1 X105.280 Y122.220 E0.35377
G1 X108.277 Y105.777 E0.35377
G1 X124.720 Y102.780 E0.35377
G1 X121.734 Y119.164 E0.35250
G1 X121.327 Y119.166 F9000.000
G1 E-4.20000 F3600.000
;WIPE_START
G1 F7200.000
G1 X118.194 Y119.821 E-1.71000
;WIPE_END
G1 E-0.09000 F3600.000
G1 X122.123 Y115.463 F9000.000
G1 E6.00000 F2400.000
;TYPE:Gap fill
;WIDTH:0.0869638
G1 F900
G1 X122.853 Y111.694 E0.01173
G1 E-4.20000 F3600.000
;WIPE_START
G1 F7200.000
G1 X122.169 Y115.228 E-1.71000
;WIPE_END
G1 E-0.09000 F3600.000
G1 X122.123 Y115.463 F9000.000
G1 E6.00000 F2400.000
;WIDTH:0.200038
G1 F900
G1 X121.440 Y118.940 E0.03081
G1 X117.787 Y119.657 E0.03238
;WIDTH:0.158742
G1
G1 X115.990 Y120.005 E0.01214
;WIDTH:0.119247
G1
G1 X114.194 Y120.353 E0.00854
G1 E-4.20000 F3600.000
;WIPE_START
G1 F7200.000
G1 X115.990 Y120.005 E-0.86916
;WIPE_END
G1 E-0.93084 F3600.000
G1 X107.147 Y113.306 F9000.000
G1 E6.00000 F2400.000
;WIDTH:0.119247
G1 F900
G1 X107.495 Y111.510 E0.00854
;WIDTH:0.158741
G1
G1 X107.843 Y109.714 E0.01214
;WIDTH:0.198237
G1
G1 X108.560 Y106.060 E0.03204
G1 X112.214 Y105.343 E0.03204
;WIDTH:0.119247
G1
G1 X115.806 Y104.647 E0.01707
;LAYER_CHANGE
;Z:1.04
;HEIGHT:0.12
;BEFORE_LAYER_CHANGE
G92 E0
;1.04


G1 E-4.20000 F3600.000
;WIPE_START
G1 F7200.000
G1 X112.272 Y105.331 E-1.71000
;WIPE_END
G1 E-0.09000 F3600.000
G1 Z1.040 F9000.000
;AFTER_LAYER_CHANGE
;1.04
G1 X121.178 Y118.678
G1 E6.00000 F2400.000
;TYPE:External perimeter
;WIDTH:0.45
G1 F900
G1 X105.640 Y121.860 E0.33572
G1 X108.822 Y106.322 E0.33572
G1 X124.360 Y103.140 E0.33572
G1 X121.191 Y118.620 E0.33445
G1 X121.333 Y119.047 F9000.000
G1 X121.723 Y119.223
G1 F900
G1 X105.280 Y122.220 E0.35377
G1 X108.277 Y105.777 E0.35377
G1 X124.720 Y102.780 E0.35377
G1 X121.734 Y119.164 E0.35250
G1 X121.327 Y119.166 F9000.000
G1 E-4.20000 F3600.000
;WIPE_START
G1 F7200.000
G1 X118.194 Y119.821 E-1.71000
;WIPE_END
G1 E-0.09000 F3600.000
G1 X122.157 Y115.287 F9000.000
G1 E6.00000 F2400.000
;TYPE:Gap fill
;WIDTH:0.119246
G1 F900
G1 X122.853 Y111.694 E0.01707
G1 E-4.20000 F3600.000
;WIPE_START
G1 F7200.000
G1 X122.169 Y115.228 E-1.71000
;WIPE_END
G1 E-0.09000 F3600.000
G1 X122.157 Y115.287 F9000.000
G1 E6.00000 F2400.000
;WIDTH:0.198235
G1 F900
G1 X121.440 Y118.940 E0.03204
G1 X117.787 Y119.657 E0.03204
;WIDTH:0.158742
G1
G1 X115.990 Y120.005 E0.01214
;WIDTH:0.119247
G1
G1 X114.194 Y120.353 E0.00854
G1 E-4.20000 F3600.000
;WIPE_START
G1 F7200.000
G1 X115.990 Y120.005 E-0.86916
;WIPE_END
G1 E-0.93084 F3600.000
G1 X107.147 Y113.306 F9000.000
G1 E6.00000 F2400.000
;WIDTH:0.119247
G1 F900
G1 X107.495 Y111.510 E0.00854
;WIDTH:0.158741
G1
G1 X107.843 Y109.714 E0.01214
;WIDTH:0.198237
G1
G1 X108.560 Y106.060 E0.03204
G1 X112.214 Y105.343 E0.03204
;WIDTH:0.119247
G1
G1 X115.806 Y104.647 E0.01707
;LAYER_CHANGE
;Z:1.16
;HEIGHT:0.12
;BEFORE_LAYER_CHANGE
G92 E0
;1.16


G1 E-4.20000 F3600.000
;WIPE_START
G1 F7200.000
G1 X112.272 Y105.331 E-1.71000
;WIPE_END
G1 E-0.09000 F3600.000
G1 Z1.160 F9000.000
;AFTER_LAYER_CHANGE
;1.16
G1 X121.178 Y118.678
G1 E6.00000 F2400.000
;TYPE:External perimeter
;WIDTH:0.45
G1 F900
G1 X105.640 Y121.860 E0.33572
G1 X108.822 Y106.322 E0.33572
G1 X124.360 Y103.140 E0.33572
G1 X121.191 Y118.620 E0.33445
G1 X121.333 Y119.047 F9000.000
G1 X121.723 Y119.223
G1 F900
G1 X105.280 Y122.220 E0.35377
G1 X108.277 Y105.777 E0.35377
G1 X124.720 Y102.780 E0.35377
G1 X121.734 Y119.164 E0.35250
G1 X121.327 Y119.166 F9000.000
G1 E-4.20000 F3600.000
;WIPE_START
G1 F7200.000
G1 X118.194 Y119.821 E-1.71000
;WIPE_END
G1 E-0.09000 F3600.000
G1 X122.157 Y115.287 F9000.000
G1 E6.00000 F2400.000
;TYPE:Gap fill
;WIDTH:0.119246
G1 F900
G1 X122.853 Y111.694 E0.01707
G1 E-4.20000 F3600.000
;WIPE_START
G1 F7200.000
G1 X122.169 Y115.228 E-1.71000
;WIPE_END
G1 E-0.09000 F3600.000
G1 X122.157 Y115.287 F9000.000
G1 E6.00000 F2400.000
;WIDTH:0.198235
G1 F900
G1 X121.440 Y118.940 E0.03204
G1 X117.787 Y119.657 E0.03204
;WIDTH:0.158742
G1
G1 X115.990 Y120.005 E0.01214
;WIDTH:0.119247
G1
G1 X114.194 Y120.353 E0.00854
G1 E-4.20000 F3600.000
;WIPE_START
G1 F7200.000
G1 X115.990 Y120.005 E-0.86916
;WIPE_END
G1 E-0.93084 F3600.000
G1 X107.147 Y113.306 F9000.000
G1 E6.00000 F2400.000
;WIDTH:0.119247
G1 F900
G1 X107.495 Y111.510 E0.00854
;WIDTH:0.158741
G1
G1 X107.843 Y109.714 E0.01214
;WIDTH:0.198236
G1
G1 X108.190 Y107.917 E0.01575
;WIDTH:0.237731
G1
G1 X108.560 Y106.060 E0.02003
